!!!COM: Bach, Johann Sebastian
!!!CDT: 1685/3//-1750/7/28/
!!!OTL@@DE: Komm, Gott Schoepfer, heiliger Geist
!!!AGN: 4-Part Chorale
!!!SCT: Erk 187
!!!SCT: BWV 370
!!!YEC: Copyright 1994, David Huron
!!!YEC: Changes/Additions 2001 by Craig Stuart Sapp
!!!YEN: United States of America
!!!SMA: 371 Bach Chorales, edited by Ludwig Erk, C.F. Peters
!!!PDT: 1850, 1865
!!!ONB: Harmony and Root analysis done manually
!!!ONB: Actual key is G Mixolydian 
**kern	**kern	**kern	**kern	**root	**harm	**kern
!bass	!tenor	!alto	!soprno	!	!	!
*Iorgan	*Iorgan	*Iorgan	*Iorgan	*Iorgan	*	*Iorgan
*M4/4	*M4/4	*M4/4	*M4/4	*M4/4	*M4/4	*M4/4
*met(C)	*met(C)	*met(C)	*met(C)	*met(C)	*met(C)	*met(C)
*MM60	*MM60	*MM60	*MM60	*MM60	*MM60	*MM60
*k[]	*k[]	*k[]	*k[]	*k[]	*k[]	*k[]
*G:	*G:	*G:	*G:	*G:	*G:	*G:
4G	4B	8d	4g	4GG	I	4G 4b 4dd
.	.	8e	.	.	.	.
=1	=1	=1	=1	=1	=1	=1
4F	4c	[4f	4a	4FF	-VII	4F 4a 4cc
4C	4c	8f]	4g	4CC	IV	4C 4e 4g
.	.	[8e	.	.	.	.
4D	4A	8e]	4f	4DD	v	4D 4f 4a
.	.	16d	.	.	.	.
.	.	16c	.	.	.	.
4E	8G	8B	4g	4EE	vi	4E 4g 4b
.	16c	[8e	.	.	.	.
.	16B	.	.	.	.	.
=2	=2	=2	=2	=2	=2	=2
4AA	8c	8e]	4cc	8AA	ii	8A 8cc 8ee
.	8f	8c	.	8FF	-VIIb	8f 8A 8cc
4GG	4B	8g	4dd	4GG	I	4G 4b 4dd
.	.	8f	.	.	.	.
4C;	4G;	4e;	4cc;	4CC;	IV;	4C; 4e; 4g;
4F	4A	8c	4cc	4FF	-VII	4F 4a 4cc
.	.	8d	.	.	.	.
=3	=3	=3	=3	=3	=3	=3
4E	8B	4e	4g	4EE	vi	4E 4g 4b
.	8c	.	.	.	.	.
4D	4d	4f	4b	4BB	iiiob	4b 4D 4ff
4.C	4e	4g	4cc	4CC	IV	4C 4e 4g
.	[4d	4g	4dd	4GG	I	4G 4b 4dd
8BB	.	.	.	.	.	.
=4	=4	=4	=4	=4	=4	=4
4C	8d]	[4g	4ee	4CC	IV	4C 4e 4g
.	16c	.	.	.	.	.
.	16B	.	.	.	.	.
4CC	8c	8g]	4ee	8CC	IV	8C 8e 8g
.	8A	8f#	.	8FF#	vii7c	8f# 8a 8C# 8e
4GG;	4B;	4g;	4dd;	4GG;	I;	4G; 4b; 4dd;
4G	4B	4g	4dd	4GG	I	4G 4b 4dd
=5	=5	=5	=5	=5	=5	=5
4C	8c	4g	8ee	4CC	IV	4C 4e 4g
.	8B	.	8dd	.	.	.
4E	4c	[4g	4cc	4CC	IVb	4c 4E 4g
4F	4c	8g]	4a	4FF	-VII	4F 4a 4cc
.	.	[8f	.	.	.	.
4c	4c	8f]	4g	4CC	IV	4C 4e 4g
.	.	8e	.	.	.	.
=6	=6	=6	=6	=6	=6	=6
8G	4d	4g	4b	4GG	I	4G 4b 4dd
8F	.	.	.	.	.	.
4E	4e	4g	4cc#	4CC#	vii/v	4C# 4e 4g#
4D;	4f;	4a;	4dd;	4DD;	v;	4D; 4f; 4a;
4E	4B	4e	4g	4EE	vi	4E 4g 4b
=7	=7	=7	=7	=7	=7	=7
8AA	4A	8e	4cc	4AA	ii	4A 4cc 4ee
8BB	.	8d	.	.	.	.
4C	4A	[4e	4a	4AA	iib	4a 4C 4ee
4D	8A	8e]	4f	8DD	v	8D 8f 8a
.	8B-	16d	.	8BB-	-IIIb	8b- 8D 8ff
.	.	16e	.	.	.	.
4AA	4c	[4f	4a	4FF	-VIIb	4f 4A 4cc
=8	=8	=8	=8	=8	=8	=8
4BB	[4d	4f]	2g	4GG	I7b	4g 4B 4dd 4ff#
4C	8d]	4e	.	4CC	IV	4C 4e 4g
.	[8c	.	.	.	.	.
4GG;	8c]	4d;	4g;	4GG;	I;	4G; 4b; 4dd;
.	8B;	.	.	.	.	.
==	==	==	==	==	==	==
*-	*-	*-	*-	*-	*-	*-
